X: 012
T: Ratha Fair
R: reel
B: Robert Bremner "A Collection of Scots Reels or Country Dances" p.1 #2
S: http://imslp.org/wiki/A_Collection_of_Scots_Reels_or_Country_Dances_(Bremner,_Robert)
Z: 2013 John Chambers <jc:trillian.mit.edu>
N: The f notes are printed high, barely overlapping the top staff line, but make more sense than g.
M: C|
L: 1/8
K: Dm
% - - - - - - - - - - - - - - - - - - - - - - - - -
V: 1
   g | adaf  ecge | adaf  adaf | adaf  ecge | (f/g/a) ge d2d :|
|: e | cA-Ac GAcG | cA-AB cded | cA-Ac GAcG | (A/B/c) Ec D2D :|
% - - - - - - - - - - - - - - - - - - - - - - - - -
V: 2 clef=bass middle=d
z |\
d2d2 c2c2 | d2d2 d2d2 | d2d2 c2c2 | d2A2 D2D :|\
|: z | a2a2
g2g2 | a2a2 a2a2 |\
a2a2 g2g2 | f2e2 d2d :|
% - - - - - - - - - - - - - - - - - - - - - - - - -

%%sep 1 1 500
%%sep 1 1 500
